bedrock/web/app/themes/labeps-theme/resources/images/icon-single.svg

<svg width="447" height="374" viewBox="0 0 447 374" fill="none" xmlns="http://www.w3.org/2000/svg">
<path d="M76.3046 158.582C73.3152 160.785 71.1597 162.374 66.2508 162.374C61.3419 162.374 59.1864 160.785 56.197 158.582C52.8614 156.128 48.7235 153.091 40.9982 153.091C33.273 153.091 29.1193 156.143 25.7995 158.582C22.8101 160.785 20.6546 162.374 15.7457 162.374C10.8368 162.374 8.68129 160.785 5.70763 158.582C4.15 157.449 2.41929 156.175 0.248047 155.136V166.26C0.342449 166.339 0.452585 166.402 0.546987 166.48C3.88252 168.935 8.02048 171.971 15.7457 171.971C23.4709 171.971 27.6246 168.919 30.9444 166.48C33.9338 164.278 36.0893 162.688 40.9825 162.688C45.8757 162.688 48.0469 164.278 51.0363 166.48C54.3719 168.935 58.5098 171.971 66.235 171.971C73.9603 171.971 78.0825 168.95 81.4023 166.496V155.294C79.3727 156.301 77.7521 157.496 76.2731 158.566" fill="#E2092F"/>
<path d="M66.2664 141.369C61.3732 141.369 59.202 139.78 56.2126 137.577C52.8771 135.123 48.7391 132.086 41.0139 132.086C33.2886 132.086 29.1349 135.139 25.8151 137.577C22.8257 139.78 20.6702 141.369 15.7771 141.369C10.8839 141.369 8.71265 139.78 5.72325 137.577C4.18135 136.445 2.43492 135.17 0.263672 134.132V145.256C0.358074 145.334 0.46821 145.397 0.562612 145.476C3.89815 147.93 8.0361 150.967 15.7613 150.967C23.4866 150.967 27.6403 147.914 30.9601 145.476C33.9495 143.273 36.105 141.684 41.0139 141.684C45.9228 141.684 48.0783 143.273 51.0677 145.476C54.4032 147.93 58.5412 150.967 66.2664 150.967C73.9916 150.967 78.1139 147.946 81.4337 145.492V134.289C79.404 135.296 77.7834 136.492 76.3045 137.562C73.3151 139.764 71.1596 141.354 66.2507 141.354" fill="#E2092F"/>
<path d="M0.56272 124.503C3.89826 126.957 8.03621 129.994 15.7614 129.994C23.4867 129.994 27.6404 126.942 30.9602 124.503C33.9496 122.3 36.1051 120.711 41.014 120.711C45.9229 120.711 48.0784 122.3 51.0678 124.503C54.4033 126.957 58.5413 129.994 66.2665 129.994C73.9917 129.994 78.114 126.957 81.4338 124.519V113.316C79.4041 114.323 77.7836 115.519 76.3046 116.589C73.3152 118.792 71.1597 120.381 66.2508 120.381C61.3419 120.381 59.1864 118.792 56.197 116.589C52.8614 114.134 48.7235 111.098 40.9982 111.098C33.273 111.098 29.1193 114.15 25.7995 116.589C22.8101 118.792 20.6546 120.381 15.7457 120.381C10.8368 120.381 8.69703 118.792 5.70763 116.589C4.16573 115.456 2.41929 114.182 0.248047 113.159V124.283C0.342449 124.361 0.452585 124.424 0.546987 124.503" fill="#E2092F"/>
<path d="M182.805 0.175674V40.5011H182.711V40.5955C182.711 55.4638 174.687 68.4283 162.729 75.4613C156.75 78.9699 149.78 80.9838 142.338 80.9838C134.896 80.9838 127.785 78.9227 121.759 75.3511C109.911 68.3182 101.95 55.3851 101.95 40.5955V40.5011H101.855V0.175674H105.726C125.818 2.09518 141.599 18.7729 142.134 39.2424C142.653 18.8358 158.324 2.20532 178.305 0.175674H182.805Z" fill="#E2092F"/>
<path d="M115.718 182.639C123.176 182.639 129.218 176.597 129.218 169.14C129.218 161.682 123.176 155.64 115.718 155.64C108.26 155.64 102.219 161.682 102.219 169.14C102.219 176.597 108.26 182.639 115.718 182.639Z" fill="#E2092F"/>
<path d="M142.716 155.545C150.174 155.545 156.216 149.504 156.216 142.046C156.216 134.588 150.174 128.546 142.716 128.546C135.259 128.546 129.217 134.588 129.217 142.046C129.217 149.504 135.259 155.545 142.716 155.545Z" fill="#E2092F"/>
<path d="M142.716 182.639C150.174 182.639 156.216 176.597 156.216 169.14C156.216 161.682 150.174 155.64 142.716 155.64C135.259 155.64 129.217 161.682 129.217 169.14C129.217 176.597 135.259 182.639 142.716 182.639Z" fill="#E2092F"/>
<path d="M169.732 155.545C177.19 155.545 183.231 149.504 183.231 142.046C183.231 134.588 177.19 128.546 169.732 128.546C162.274 128.546 156.232 134.588 156.232 142.046C156.232 149.504 162.274 155.545 169.732 155.545Z" fill="#E2092F"/>
<path d="M169.732 128.421C177.19 128.421 183.231 122.379 183.231 114.922C183.231 107.464 177.19 101.422 169.732 101.422C162.274 101.422 156.232 107.464 156.232 114.922C156.232 122.379 162.274 128.421 169.732 128.421Z" fill="#E2092F"/>
<path d="M169.732 182.639C177.19 182.639 183.231 176.597 183.231 169.14C183.231 161.682 177.19 155.64 169.732 155.64C162.274 155.64 156.232 161.682 156.232 169.14C156.232 176.597 162.274 182.639 169.732 182.639Z" fill="#E2092F"/>
<path d="M80.175 203.36L80.1436 203.329V203.25L80.0964 203.282C76.7766 203.077 -2.86725 198.168 4.51184 282.737C4.51184 283.036 4.51184 283.256 4.60624 283.492C4.87371 283.523 5.09398 283.523 5.32999 283.508C90.1659 285.915 80.5684 206.665 80.175 203.36Z" fill="#E2092F"/>
</svg>

<svg xmlns="http://www.w3.org/2000/svg" width="447" height="374" fill="none"><path fill="#E2092F" d="M76.305 158.582c-2.99 2.203-5.145 3.792-10.054 3.792-4.91 0-7.065-1.589-10.054-3.792-3.336-2.454-7.474-5.491-15.199-5.491s-11.879 3.052-15.198 5.491c-2.99 2.203-5.145 3.792-10.054 3.792-4.91 0-7.065-1.589-10.038-3.792-1.558-1.133-3.289-2.407-5.46-3.446v11.124c.094.079.205.142.299.22 3.336 2.455 7.473 5.491 15.199 5.491 7.725 0 11.879-3.052 15.198-5.491 2.99-2.202 5.145-3.792 10.039-3.792 4.893 0 7.064 1.59 10.053 3.792 3.336 2.455 7.474 5.491 15.199 5.491s11.847-3.021 15.167-5.475v-11.202c-2.03 1.007-3.65 2.202-5.129 3.272M66.266 141.369c-4.893 0-7.064-1.589-10.053-3.792-3.336-2.454-7.474-5.491-15.2-5.491-7.724 0-11.878 3.053-15.198 5.491-2.99 2.203-5.145 3.792-10.038 3.792-4.893 0-7.064-1.589-10.054-3.792-1.542-1.132-3.288-2.407-5.46-3.445v11.124c.095.078.205.141.3.22 3.335 2.454 7.473 5.491 15.198 5.491 7.726 0 11.88-3.053 15.2-5.491 2.989-2.203 5.144-3.792 10.053-3.792 4.909 0 7.064 1.589 10.054 3.792 3.335 2.454 7.473 5.491 15.198 5.491 7.726 0 11.848-3.021 15.168-5.475v-11.203c-2.03 1.007-3.65 2.203-5.13 3.273-2.989 2.202-5.144 3.792-10.053 3.792M.563 124.503c3.335 2.454 7.473 5.491 15.198 5.491 7.726 0 11.88-3.052 15.2-5.491 2.989-2.203 5.144-3.792 10.053-3.792 4.909 0 7.064 1.589 10.054 3.792 3.335 2.454 7.473 5.491 15.198 5.491 7.726 0 11.848-3.037 15.168-5.475v-11.203c-2.03 1.007-3.65 2.203-5.13 3.273-2.989 2.203-5.144 3.792-10.053 3.792-4.91 0-7.065-1.589-10.054-3.792-3.336-2.455-7.474-5.491-15.199-5.491S29.12 114.15 25.8 116.589c-2.99 2.203-5.145 3.792-10.054 3.792-4.91 0-7.049-1.589-10.038-3.792-1.542-1.133-3.289-2.407-5.46-3.43v11.124c.094.078.205.141.299.22M182.805.176V40.5h-.094v.095c0 14.868-8.024 27.832-19.982 34.865a40.165 40.165 0 0 1-20.391 5.523 40.444 40.444 0 0 1-20.579-5.633c-11.848-7.033-19.809-19.966-19.809-34.755V40.5h-.095V.176h3.871c20.092 1.92 35.873 18.597 36.408 39.066.519-20.406 16.19-37.037 36.171-39.066h4.5ZM115.718 182.639c7.458 0 13.5-6.042 13.5-13.499 0-7.458-6.042-13.5-13.5-13.5s-13.499 6.042-13.499 13.5c0 7.457 6.041 13.499 13.499 13.499ZM142.716 155.545c7.458 0 13.5-6.041 13.5-13.499s-6.042-13.5-13.5-13.5c-7.457 0-13.499 6.042-13.499 13.5s6.042 13.499 13.499 13.499Z"/><path fill="#E2092F" d="M142.716 182.639c7.458 0 13.5-6.042 13.5-13.499 0-7.458-6.042-13.5-13.5-13.5-7.457 0-13.499 6.042-13.499 13.5 0 7.457 6.042 13.499 13.499 13.499ZM169.732 155.545c7.458 0 13.499-6.041 13.499-13.499s-6.041-13.5-13.499-13.5-13.5 6.042-13.5 13.5 6.042 13.499 13.5 13.499ZM169.732 128.421c7.458 0 13.499-6.042 13.499-13.499 0-7.458-6.041-13.5-13.499-13.5s-13.5 6.042-13.5 13.5c0 7.457 6.042 13.499 13.5 13.499ZM169.732 182.639c7.458 0 13.499-6.042 13.499-13.499 0-7.458-6.041-13.5-13.499-13.5s-13.5 6.042-13.5 13.5c0 7.457 6.042 13.499 13.5 13.499ZM80.175 203.36l-.031-.031v-.079l-.048.032c-3.32-.205-82.963-5.114-75.584 79.455 0 .299 0 .519.094.755.268.031.488.031.724.016 84.836 2.407 75.238-76.843 74.845-80.148Z"/></svg>
